public/images/hashed/19d995da787b7ab97b705933a9066af4.svg

<?xml version="1.0" encoding="UTF-8"?>
<svg width="80px" height="80px" viewBox="0 0 80 80" version="1.1" xmlns="http://www.w3.org/2000/svg" xmlns:xlink="http://www.w3.org/1999/xlink">
    <!-- Generator: Sketch 64 (93537) - https://sketch.com -->
    <title>Icon-Architecture/64/Arch_Amazon-Transcribe_64</title>
    <desc>Created with Sketch.</desc>
    <defs>
        <linearGradient x1="0%" y1="100%" x2="100%" y2="0%" id="linearGradient-1">
            <stop stop-color="#055F4E" offset="0%"></stop>
            <stop stop-color="#56C0A7" offset="100%"></stop>
        </linearGradient>
    </defs>
    <g id="Icon-Architecture/64/Arch_Amazon-Transcribe_64" stroke="none" stroke-width="1" fill="none" fill-rule="evenodd">
        <g id="Icon-Architecture-BG/64/Machine-Learning" fill="url(#linearGradient-1)">
            <rect id="Rectangle" x="0" y="0" width="80" height="80"></rect>
        </g>
        <path d="M40.9995993,28.9924753 L47.9997032,28.9924753 L47.9997032,26.9906522 L40.9995993,26.9906522 L40.9995993,28.9924753 Z M40.9995993,22.9639851 L49.9997329,22.9639851 L49.9997329,20.962162 L40.9995993,20.962162 L40.9995993,22.9639851 Z M45.9996735,33.997033 L59.9998813,33.997033 L59.9998813,31.9952099 L45.9996735,31.9952099 L45.9996735,33.997033 Z M49.9997329,28.9924753 L60.9998961,28.9924753 L60.9998961,26.9906522 L49.9997329,26.9906522 L49.9997329,28.9924753 Z M65.9999703,55.0161754 L48.9997181,55.0161754 L48.9997181,57.0179985 L66.9999852,57.0179985 C67.5519934,57.0179985 68,56.5695902 68,56.017087 L68,38.0006792 L65.9999703,38.0006792 L65.9999703,55.0161754 Z M64.5819493,22.987006 L56.9998368,15.4131084 L56.9998368,22.987006 L64.5819493,22.987006 Z M68,23.9879176 L68,30.9712774 L65.9999703,30.9712774 L65.9999703,24.9888291 L55.9998219,24.9888291 C55.4468137,24.9888291 54.9998071,24.5404207 54.9998071,23.9879176 L54.9998071,14.0018231 L36.99954,14.0058267 L36.99954,26.9906522 L34.9995103,26.9906522 L34.9995103,13.0049152 C34.9995103,12.452412 35.4465169,12.0040036 35.9995251,12.0040036 L55.9998219,12 C56.2588258,12 56.5148296,12.102093 56.7058324,12.2922662 L67.7059956,23.2792722 C67.8979985,23.4704463 68,23.7276806 68,23.9879176 L68,23.9879176 Z M18.9992729,51.0125293 L20.9993026,51.0125293 L20.9993026,44.0061485 L18.9992729,44.0061485 L18.9992729,51.0125293 Z M22.9993322,54.0152639 L24.9993619,54.0152639 L24.9993619,40.0025023 L22.9993322,40.0025023 L22.9993322,54.0152639 Z M26.9993916,52.0134408 L28.9994213,52.0134408 L28.9994213,41.0034138 L26.9993916,41.0034138 L26.9993916,52.0134408 Z M30.9994509,55.0161754 L32.9994806,55.0161754 L32.9994806,39.0015907 L30.9994509,39.0015907 L30.9994509,55.0161754 Z M34.9995103,51.0125293 L36.99954,51.0125293 L36.99954,42.0043254 L34.9995103,42.0043254 L34.9995103,51.0125293 Z M38.9995697,55.0161754 L40.9995993,55.0161754 L40.9995993,39.0015907 L38.9995697,39.0015907 L38.9995697,55.0161754 Z M42.999629,50.0116177 L44.9996587,50.0116177 L44.9996587,43.0052369 L42.999629,43.0052369 L42.999629,50.0116177 Z M45.1656612,56.4664963 L46.8336859,57.5695008 C43.5736375,62.5069974 38.0275552,65.4546819 31.9994658,65.4546819 C28.779418,65.4546819 25.5963708,64.6439436 22.9683318,63.1645963 L13.889197,67.8618742 C13.6941942,67.954959 13.4901911,68 13.2911882,68 C12.942183,68 12.608178,67.8618742 12.3601744,67.603639 C11.9741686,67.2012726 11.8891674,66.5987238 12.1501712,66.1022717 L16.8452409,57.0670432 C14.9562129,54.0072566 13.9991987,50.9624837 13.9991987,48.0097946 C13.9991987,38.2439007 22.242321,29.9933868 31.9994658,29.9933868 C35.7285211,29.9933868 39.6785797,31.1814688 42.5666226,33.1722819 L41.4316058,34.8217841 C38.8655677,33.0511716 35.3385153,31.9952099 31.9994658,31.9952099 C23.3263371,31.9952099 15.9992284,39.3288888 15.9992284,48.0097946 C15.9992284,50.7282704 16.9542425,53.5748628 18.8362705,56.4715008 C19.0342734,56.774777 19.0522737,57.1591271 18.8852712,57.4794188 L14.9442127,65.0633255 L22.5403254,61.1337468 C22.85033,60.9726 23.2213355,60.9856119 23.52034,61.1687787 C25.8933752,62.6201004 28.983421,63.4528589 31.9994658,63.4528589 C37.3545453,63.4528589 42.2766183,60.8404797 45.1656612,56.4664963 L45.1656612,56.4664963 Z" id="Amazon-Transcribe_Icon_64_Squid" fill="#FFFFFF"></path>
    </g>
</svg>

<svg xmlns="http://www.w3.org/2000/svg" width="80" height="80"><defs><linearGradient id="a" x1="0%" x2="100%" y1="100%" y2="0%"><stop offset="0%" stop-color="#055F4E"/><stop offset="100%" stop-color="#56C0A7"/></linearGradient></defs><g fill="none" fill-rule="evenodd"><path fill="url(#a)" d="M0 0h80v80H0z"/><path fill="#FFF" d="M41 28.992h7v-2.001h-7v2.001Zm0-6.028h9v-2.002h-9v2.002Zm5 11.033h14v-2.002H46v2.002Zm4-5.005h11v-2.001H50v2.001Zm16 26.024H49v2.002h18a1 1 0 0 0 1-1V38h-2v17.015Zm-1.418-32.029L57 15.413v7.574h7.582Zm3.418 1v6.984h-2V24.99H56a1 1 0 0 1-1-1.001v-9.986l-18 .004V26.99h-2V13.005a1 1 0 0 1 1-1.001L56 12c.259 0 .515.102.706.292l11 10.987a1 1 0 0 1 .294.709ZM19 51.014h2v-7.007h-2v7.007Zm4 3.002h2V40.003h-2v14.012Zm4-2.002h2v-11.01h-2v11.01Zm4 3.003h2V39.002h-2v16.014Zm4-4.003h2v-9.009h-2v9.009Zm4 4.003h2V39.002h-2v16.014Zm4-5.004h2v-7.007h-2v7.007Zm2.166 6.454 1.668 1.104c-3.26 4.937-8.806 7.885-14.835 7.885-3.22 0-6.403-.811-9.03-2.29l-9.08 4.697a1.387 1.387 0 0 1-.598.138 1.294 1.294 0 0 1-1.141-1.898l4.695-9.035C14.956 54.007 14 50.962 14 48.01c0-9.766 8.243-18.017 18-18.017 3.73 0 7.68 1.188 10.568 3.18l-1.135 1.649c-2.566-1.77-6.093-2.827-9.433-2.827-8.673 0-16 7.334-16 16.015 0 2.718.955 5.565 2.837 8.462a.997.997 0 0 1 .05 1.007l-3.942 7.584 7.596-3.93a.995.995 0 0 1 .98.036c2.373 1.451 5.463 2.284 8.48 2.284 5.355 0 10.277-2.613 13.166-6.987Z"/></g></svg>
